!!!OTL: Moonlight
!!!OTL@@CHN: 月光光
!!!ARE: China
**kern
*clefG2
*M3/4
*k[b-e-a-]
*MM80
{8c
8B-
2c
=1
8c
8B-
2c}
=2
{8c
8B-
4c
4B-
=3
8G
8F
2G}
=4
{8F
8E-
4.F
8G
=5
8F
8E-
2C}
=6
{8C
8E-
4.F
8G
=7
8F
8E-
2BB-}
=8
{8C
8BB-
2C
=9
8F
8E-
2F}
=10
{8G
8G
4G
4B-
=11
8G
8F
2G}
=12
{8c
8B-
2c
=13
8c
8B-
2c}
=14
{8c
8B-
4G
4B-
=15
8c
8B-
2c}
==
*-
